usr/share/icons/biglinux-icons-material/24/places/folder-camera.svg

<svg width="24" height="24" version="1.1" xmlns="http://www.w3.org/2000/svg">
 <defs>
  <style id="current-color-scheme" type="text/css">.ColorScheme-Text { color:#dedede; }</style>
 </defs>
 <g class="ColorScheme-Text" transform="translate(4,4)" fill="currentColor">
  <path d="m16 2v12h-16v-12zm-15 1v5.2891l3.5-3.4922 5 5 2-2 3.5 3.4922v-8.2891zm0 10h10.289l-6.7891-6.7969-3.5 3.5078zm14 0v-0.28906l-3.5-3.5078-1.2969 1.2969 2.5078 2.5zm-2.5-7q-0.20312 0-0.35156-0.14844t-0.14844-0.35156 0.14844-0.35156 0.35156-0.14844 0.35156 0.14844 0.14844 0.35156-0.14844 0.35156-0.35156 0.14844z"/>
 </g>
</svg>

<svg xmlns="http://www.w3.org/2000/svg" width="24" height="24"><path fill="currentColor" d="M16 2v12H0V2zM1 3v5.29l3.5-3.493 5 5 2-2 3.5 3.492V3zm0 10h10.289l-6.79-6.797L1 9.711zm14 0v-.29l-3.5-3.507-1.297 1.297 2.508 2.5zm-2.5-7q-.203 0-.352-.148T12 5.5t.148-.352T12.5 5t.352.148T13 5.5t-.148.352T12.5 6z" style="color:#dedede" transform="translate(4 4)"/></svg>
